tools/download-figma-icons/icons/outlined-large/thumbs-up.svg

<svg width="64" height="64" viewBox="0 0 64 64" fill="none" xmlns="http://www.w3.org/2000/svg"><path fill-rule="evenodd" clip-rule="evenodd" d="M58.5 31h-18a1.5 1.5 0 0 0 0 3h15c1.379 0 2.5 1.121 2.5 2.5S56.879 39 55.5 39h-15a1.5 1.5 0 0 0 0 3h12c1.379 0 2.5 1.121 2.5 2.5S53.879 47 52.5 47h-12a1.5 1.5 0 0 0 0 3h9c1.379 0 2.5 1.121 2.5 2.5S50.879 55 49.5 55H17V28.942C28.771 28.116 33 17.58 33 8.5c0-1.3.632-3.5 3-3.5 2.062 0 3 1.814 3 3.5v16a1.5 1.5 0 0 0 1.5 1.5h18c1.379 0 2.5 1.121 2.5 2.5S59.879 31 58.5 31ZM14 56.5c0 .827-.673 1.5-1.5 1.5h-8c-.827 0-1.5-.673-1.5-1.5v-29c0-.827.673-1.5 1.5-1.5h8c.827 0 1.5.673 1.5 1.5v29Zm50-28c0-3.032-2.468-5.5-5.5-5.5H42V8.5C42 5.349 39.897 2 36 2c-3.939 0-6 3.27-6 6.5 0 8.129-3.536 16.771-13.297 17.436C16.064 24.227 14.429 23 12.5 23h-8A4.505 4.505 0 0 0 0 27.5v29C0 58.981 2.019 61 4.5 61h8c1.953 0 3.603-1.258 4.224-3H49.5c3.032 0 5.5-2.468 5.5-5.5a5.45 5.45 0 0 0-.766-2.785A5.506 5.506 0 0 0 58 44.5a5.45 5.45 0 0 0-.766-2.785A5.506 5.506 0 0 0 61 36.5a5.45 5.45 0 0 0-.766-2.785A5.506 5.506 0 0 0 64 28.5Z" fill="currentColor"/></svg>

<svg width="64" height="64" viewBox="0 0 64 64" fill="none" xmlns="http://www.w3.org/2000/svg">
<path fill-rule="evenodd" clip-rule="evenodd" d="M58.5 31H55.5H40.922H40.5C39.672 31 39 31.672 39 32.5C39 33.328 39.672 34 40.5 34H40.922H55.5C56.879 34 58 35.121 58 36.5C58 37.879 56.879 39 55.5 39H52.5H43.816H40.5C39.672 39 39 39.672 39 40.5C39 41.328 39.672 42 40.5 42H43.816H52.5C53.879 42 55 43.121 55 44.5C55 45.879 53.879 47 52.5 47H49.5H43.816H40.5C39.672 47 39 47.672 39 48.5C39 49.328 39.672 50 40.5 50H43.816H49.5C50.879 50 52 51.121 52 52.5C52 53.879 50.879 55 49.5 55H39.545H37.5H17V28.942C28.771 28.116 33 17.58 33 8.5C33 7.2 33.632 5 36 5C38.062 5 39 6.814 39 8.5V24.5C39 25.328 39.672 26 40.5 26H58.5C59.879 26 61 27.121 61 28.5C61 29.879 59.879 31 58.5 31ZM14 56.5C14 57.327 13.327 58 12.5 58H4.5C3.673 58 3 57.327 3 56.5V27.5C3 26.673 3.673 26 4.5 26H12.5C13.327 26 14 26.673 14 27.5V56.5ZM64 28.5C64 25.468 61.532 23 58.5 23H42V8.5C42 5.349 39.897 2 36 2C32.061 2 30 5.27 30 8.5C30 16.629 26.464 25.271 16.703 25.936C16.064 24.227 14.429 23 12.5 23H4.5C2.019 23 0 25.019 0 27.5V56.5C0 58.981 2.019 61 4.5 61H12.5C14.453 61 16.103 59.742 16.724 58H37.5H39.545H49.5C52.532 58 55 55.532 55 52.5C55 51.483 54.718 50.533 54.234 49.715C56.419 48.986 58 46.926 58 44.5C58 43.483 57.718 42.533 57.234 41.715C59.419 40.986 61 38.926 61 36.5C61 35.483 60.718 34.533 60.234 33.715C62.419 32.986 64 30.926 64 28.5Z" fill="black"/>
</svg>
